X: 11958
T: Enchanted Slip, The
R: slip jig
M: 9/8
K: Dmajor
"D"A2G F2A "G"dcB|"D"A2G F2D "Em"EGB|"D"A2G F2A "G"dcB|"D"A2B d2e "Bm"fdB|
"D"A2G F2A "G"dcB|"D"A2G F2D "Em"EGB|"D"A2G F2A "G"dcB|"D"A2B d2e "A"fed:|
|:"D"f2f e2f def|"D"a2f d2f "G"eBd|"D"f2f e2f dBA|"G"Bcd "D"AGF DAd|
"D"f2f e2f def|"D"a2f d2f "G"edB|"D"A2B A2B "G"dfb|"D"a2f d2f "A"edB:|

